src/assets/images/skills/c++.svg

<?xml version="1.0" encoding="UTF-8" standalone="no"?>
<svg width="64px" height="64px" viewBox="0 0 64 64" version="1.1" xmlns="http://www.w3.org/2000/svg" xmlns:xlink="http://www.w3.org/1999/xlink">
    <defs></defs>
    <g id="Languages" stroke="none" stroke-width="1" fill="none" fill-rule="evenodd">
        <g id="icons/skills/id-133">
            <path d="M30.2739319,3.09258271 C31.227213,2.54261285 32.7781284,2.5456944 33.7260681,3.09258271 L56.2739319,16.1009657 C57.227213,16.6509355 58,17.9946146 58,19.0883912 L58,45.1051572 C58,46.2050969 57.2218716,47.5456944 56.2739319,48.0925827 L33.7260681,61.1009657 C32.772787,61.6509355 31.2218716,61.647854 30.2739319,61.1009657 L7.72606809,48.0925827 C6.77278701,47.5426129 6,46.1989338 6,45.1051572 L6,19.0883912 C6,17.9884515 6.77812836,16.647854 7.72606809,16.1009657 L30.2739319,3.09258271 L30.2739319,3.09258271 Z" id="Polygon-1" fill="#9C033A"></path>
            <path d="M34.8387097,31.6935484 L37.3548387,31.6935484 L37.3548387,29.1290323 L39.483871,29.1290323 L39.483871,31.6935484 L42.0483871,31.6935484 L42.0483871,33.8225806 L39.483871,33.8225806 L39.483871,36.3387097 L37.3548387,36.3387097 L37.3548387,33.8225806 L34.8387097,33.8225806 L34.8387097,31.6935484 L34.8387097,31.6935484 Z M43.7903226,31.6935484 L46.3064516,31.6935484 L46.3064516,29.1290323 L48.4354839,29.1290323 L48.4354839,31.6935484 L51,31.6935484 L51,33.8225806 L48.4354839,33.8225806 L48.4354839,36.3387097 L46.3064516,36.3387097 L46.3064516,33.8225806 L43.7903226,33.8225806 L43.7903226,31.6935484 L43.7903226,31.6935484 Z" id="Shape" fill="#FFFFFF"></path>
            <path d="M31.034,26.868 C30.5126641,26.2333302 29.8723371,25.7460017 29.113,25.406 C28.3536629,25.0659983 27.4753383,24.896 26.478,24.896 C25.4806617,24.896 24.5570043,25.0886647 23.707,25.474 C22.8569957,25.8593353 22.1203364,26.3976632 21.497,27.089 C20.8736635,27.7803368 20.3863351,28.6019952 20.035,29.554 C19.6836649,30.5060048 19.508,31.5373278 19.508,32.648 C19.508,33.781339 19.6836649,34.8183286 20.035,35.759 C20.3863351,36.6996714 20.8679969,37.5156632 21.48,38.207 C22.0920031,38.8983368 22.8116625,39.4366647 23.639,39.822 C24.4663375,40.2073353 25.3559952,40.4 26.308,40.4 C27.3960054,40.4 28.3593291,40.1733356 29.198,39.72 C30.0366709,39.2666644 30.7279973,38.6320041 31.272,37.816 L35.692,41.114 C34.6719949,42.5420071 33.3800078,43.5959966 31.816,44.276 C30.2519922,44.9560034 28.6426749,45.296 26.988,45.296 C25.1066573,45.296 23.3726746,45.0013363 21.786,44.412 C20.1993254,43.8226637 18.8280058,42.9783388 17.672,41.879 C16.5159942,40.7796612 15.6150032,39.4480078 14.969,37.884 C14.3229968,36.3199922 14,34.5746763 14,32.648 C14,30.7213237 14.3229968,28.9760078 14.969,27.412 C15.6150032,25.8479922 16.5159942,24.5163388 17.672,23.417 C18.8280058,22.3176612 20.1993254,21.4733363 21.786,20.884 C23.3726746,20.2946637 25.1066573,20 26.988,20 C27.6680034,20 28.3763296,20.0623327 29.113,20.187 C29.8496704,20.3116673 30.5749964,20.5099986 31.289,20.782 C32.0030036,21.0540014 32.6886634,21.4166644 33.346,21.87 C34.0033366,22.3233356 34.5926641,22.8786634 35.114,23.536 L31.034,26.868 Z" id="C" fill="#FFFFFF"></path>
        </g>
    </g>
</svg>

<svg xmlns="http://www.w3.org/2000/svg" width="64" height="64" fill-rule="evenodd" xmlns:v="https://vecta.io/nano"><path d="M30.274 3.093c.953-.55 2.504-.547 3.452 0L56.274 16.1c.953.55 1.726 1.894 1.726 2.987v26.017c0 1.1-.778 2.44-1.726 2.987L33.726 61.1c-.953.55-2.504.547-3.452 0L7.726 48.093C6.773 47.543 6 46.2 6 45.105V19.088c0-1.1.778-2.44 1.726-2.987L30.274 3.093z" fill="#9c033a"/><path d="M34.84 31.694h2.516V29.13h2.13v2.565h2.565v2.13h-2.565v2.516h-2.13v-2.516H34.84v-2.13zm8.952 0h2.516V29.13h2.13v2.565H51v2.13h-2.565v2.516h-2.13v-2.516H43.8v-2.13zm-12.758-4.826a5.2 5.2 0 0 0-1.921-1.462c-.76-.34-1.638-.5-2.635-.5s-1.92.193-2.77.578a6.63 6.63 0 0 0-2.21 1.615c-.623.7-1.1 1.513-1.462 2.465s-.527 1.983-.527 3.094c0 1.133.176 2.17.527 3.1s.833 1.757 1.445 2.448a6.55 6.55 0 0 0 2.159 1.615c.827.385 1.717.578 2.67.578 1.088 0 2.05-.227 2.9-.68a5.75 5.75 0 0 0 2.074-1.904l4.42 3.298c-1.02 1.428-2.312 2.482-3.876 3.162s-3.173 1.02-4.828 1.02c-1.88 0-3.615-.295-5.202-.884s-2.958-1.434-4.114-2.533-2.057-2.43-2.703-3.995-.97-3.3-.97-5.236.323-3.672.97-5.236 1.547-2.896 2.703-3.995 2.527-1.944 4.114-2.533 3.31-.893 5.2-.893a12.74 12.74 0 0 1 2.125.187 11.48 11.48 0 0 1 2.176.595c.714.272 1.4.635 2.057 1.088a8.18 8.18 0 0 1 1.768 1.666l-4.08 3.332z" fill="#fff"/></svg>
